!!!COM: Frescobaldi, Girolamo
!!!CDT: 1583///-1643
!!!ONM: No. 16
!!!OTL: No. 16: Canzon Quinta &agrave; 2. Canto e Basso
!!!OPR: Canzoni da sonare a una, due, tre et quattro, libro primo
!!!PPP: Venezia
!!!PDT: 1634
!!!URL: http://icking-music-archive.org/ByComposer/Frescobaldi.html
!!!ONB: Andrea Friggi, ed.
**kern	**kern	**kern
!Basso ad Organo	!Basso	!Canto
*staff3	*staff2	*staff1
*Icello	*Icello	*Ivioln
*clefF4	*clefF4	*clefG2
*k[]	*k[]	*k[]
*met(C)	*met(C)	*met(C)
*M4/4	*M4/4	*M4/4
*MM120	*MM120	*MM120
=1-	=1-	=1-
4.A\	4.A\	1r
8E\	8E\	.
4A\	4A\	.
4c\	4c\	.
=2	=2	=2
2G#\	8G#\L	1r
.	8A\	.
.	8B\	.
.	8G#\J	.
4A\	4A\	.
8Gn\L	8Gn\L	.
8F\J	8F\J	.
=3	=3	=3
4E\	4E\	4.ee\
4AA/	4A\	.
.	.	8a/
4C#/	4C#/	4ee\
4D\	4D\	4ff\
=4	=4	=4
2AA/	2AA/	8cc#\L
.	.	8dd\
.	.	8ee\
.	.	8cc#\J
4D\	2r	4dd\
4E\	.	8ccn\L
.	.	8b\J
=5	=5	=5
4F\	2r	8a\L
.	.	8b\
4A\	.	8cc\
.	.	8dd\J
4.E\	4.E\	8b/L
.	.	8g/J
.	.	4cc\
8AA/	8AA/	.
=6	=6	=6
4E\	4E\	4g#/
4F\	4F\	4a/
2C#/	8C#/L	2ee\
.	8D/	.
.	8E/	.
.	8C#/J	.
=7	=7	=7
2D\	4D\	1r
.	8C/L	.
.	8BB/J	.
2AA/	8AA/L	.
.	8BB/	.
.	8C/	.
.	8D/J	.
=8	=8	=8
4E\	4E\	2r
4F#\	4F#\	.
4G#\	4G#\	4.ee\
4A\	4A\	.
.	.	8a/
=9	=9	=9
4F\	4F\	4dd\
8E\L	8E\L	4ff\
8D\J	8D\J	.
2AA/	2A\	8cc#\L
.	.	8dd\
.	.	8ee\
.	.	8cc#\J
=10	=10	=10
2F#\	1r	8dd\L
.	.	8ee\
.	.	8cc\
.	.	8dd\J
2G\	.	8b\L
.	.	8dd\
.	.	8cc\
.	.	8b\J
=11	=11	=11
4.A\	4.A\	2cc\
8E\	8E\	.
4A\	4A\	4r
4c\	4c\	4ee\
=12	=12	=12
2G#\	8G#\L	4ee\
.	8A\	.
.	8B\	8dd\L
.	8G#\J	8ee\J
4A\	2A\	4cc\
4F#\	.	8dd\L
.	.	8cc\J
=13	=13	=13
2G\	2r	4.b\
.	.	8e/
4D\	4r	4a/
4AA/	4E\	4cc\
=14	=14	=14
4E\	4E\	8g#/L
.	.	8a/
4D\	8D\L	8b/
.	8E\J	8g#/J
4C/	4C/	4.a/
4D\	8D/L	.
.	8C/J	8a/
=15	=15	=15
4BB/	4BB/	2b\
4E\	4E\	.
2AA/	8AA/L	2cc\
.	8C/	.
.	8BB/	.
.	8AA/J	.
=16	=16	=16
2GG#/	2GG#/	2r
4AA/	2AA/	4.a/
[4A\	.	.
.	.	8e/
=17	=17	=17
4A\]	1r	4a/
8G\L	.	4cc\
8F\J	.	.
2E\	.	8g#/L
.	.	8a/
.	.	8b/
.	.	8g#/J
=18	=18	=18
4.F\	1r	8a\L
.	.	8cc\
.	.	8dd\
8E\	.	8ee\J
4D\	.	4ff\
4A\	.	4ee\
=19	=19	=19
4.D\	4.D\	2ff\
8AA/	8AA/	.
4D\	4D\	4r
4F\	4F\	4a/
=20	=20	=20
2C#/	8C#/L	4a/
.	8D/	.
.	8E/	8g/L
.	8C#/J	8a/J
4D\	2D\	4f/
4BB/	.	8g/L
.	.	8f/J
=21	=21	=21
2C/	1r	8e/L
.	.	8g/
.	.	8a/
.	.	8b/J
4AA/	.	8cc\L
.	.	8dd\J
4GG/	.	4b\
=22	=22	=22
4C/	2r	4.cc\
4F\	.	.
.	.	8a/
2D\	4r	4dd\
.	4A\	4ff\
=23	=23	=23
4A\	4A\	8cc#\L
.	.	8dd\
8G\L	8G\L	8ee\
8A\J	8A\J	8cc#\J
4F#\	4F#\	4dd\
8G\L	8G\L	4b\
8F#\J	8F#\J	.
=24	=24	=24
4E\	4E\	4r
4C/	4C/	4ee\
4c\	4c\	4ee\
4B\	4B\	8dd\L
.	.	8ee\J
=25	=25	=25
4A\	4A\	4cc\
4D\	4D\	8dd\L
.	.	8cc\J
2E\	2E\	2b\
=26	=26	=26
1AA	1AA	1a
=27	=27	=27
*M3/1	*M3/1	*M3/1
1A	2.A\	0.r
.	4B\	.
1c	2c\	.
.	4B\	.
.	4A\	.
1G#	1G#	.
=28	=28	=28
1A	1A	2.ee\
.	.	4ff\
1E	2E\	2gg\
.	2F\	4ff\
.	.	4ee\
1G	1G	1dd
=29	=29	=29
0C	0C	0ee
1C	1r	1r
=30	=30	=30
1D	2.D\	0.r
.	4E\	.
1F	2F\	.
.	4E\	.
.	4D\	.
1C#	1C#	.
=31	=31	=31
0D	0D	2.dd\
.	.	4ee\
.	.	2ff\
.	.	4ee\
.	.	4dd\
1AA	1AA	1cc#
=32	=32	=32
0BB-	1BB-	2.dd\
.	.	4cc\
.	1BB-	2b-\
.	.	2a/
1C	1C	1g
=33	=33	=33
1FF	2.FF/	2.a/
.	4GG/	4a/
1AA	1AA	2cc\
.	.	4b\
.	.	4a/
1r	1EE	1g#
=34	=34	=34
0FF	2FF/	1a
.	2GG/	.
.	2AA/	1ff
.	2BB/	.
1C	1C	1ee
=35	=35	=35
0D	0D	2.dd\
.	.	4ee\
.	.	2ff\
.	.	4ee\
.	.	4dd\
1AA	1AA	1cc#
=36	=36	=36
*met(C)	*met(C)	*met(C)
*M4/4	*M4/4	*M4/4
1D	1D	1dd
=37	=37	=37
1C#	1r	2r
.	.	[2a/
=38	=38	=38
2D\	1r	4a/]
.	.	4f#/
[2BB/	.	[2b\
=39	=39	=39
2BB/]	2r	4b\]
.	.	8a/L
.	.	8g/J
2AA/	[2A\	2cc\
=40	=40	=40
2F#\	4A\]	4a/
.	4F#\	4.dd\
2G\	2G\	.
.	.	8cc\L
.	.	8b\
.	.	8a\J
=41	=41	=41
2BB/	2BB/	4g/
.	.	2dd\
[2C/	[2C/	.
.	.	4cc\
=42	=42	=42
2C/]	2C/]	4.ee\
.	.	8dd\
2EE/	2EE/	[2cc\
=43	=43	=43
1GG	1GG	4cc\]
.	.	8b/L
.	.	8a/J
.	.	2b\
=44	=44	=44
*M3/4	*M3/4	*M3/4
2C/	2.r	4ee\
.	.	4ee\
4F\	.	4a/
=45	=45	=45
2D\	2.r	4dd\
.	.	4ff\
4A\	.	4cc#\
=46	=46	=46
2.F#\	2.r	4.dd\
.	.	8cc\L
.	.	8b\
.	.	8a\J
=47	=47	=47
2G\	2.r	4b\
.	.	4g/
4G\	.	4dd\
=48	=48	=48
2A\	4A\	4.cc\
.	4A\	.
.	.	8dd\L
4E\	4E\	8ee\
.	.	8dd\J
=49	=49	=49
4A\	4A\	2cc\
4c\	4c\	.
4G#\	4G#\	4b\
=50	=50	=50
2.A\	4.A\	2.cc\
.	8G\L	.
.	8F\	.
.	8E\J	.
=51	=51	=51
4F\	4F\	2.r
2G\	2G\	.
=52	=52	=52
2.C/	2.C/	4ee\
.	.	4ee\
.	.	4a/
=53	=53	=53
2.BB/	2.r	4dd\
.	.	4cc\
.	.	4b\
=54	=54	=54
2AA/	4A\	2cc\
.	4A\	.
4E\	4E\	4g#/
=55	=55	=55
2F\	2F\	8a\L
.	.	8b\
.	.	8cc\
.	.	8dd\J
4C#/	4C#/	4ee\
=56	=56	=56
2D\	4D\	4ff\
.	4D\	4dd\
4AA/	4AA/	4ff\
=57	=57	=57
2C/	2C/	4.ee\
.	.	16dd\LL
.	.	16cc\JJ
4GG#/	4GG#/	4b\
=58	=58	=58
2AA/	2AA/	4cc\
.	.	4a/
4FF/	4FF/	4dd\
=59	=59	=59
2GG/	2GG/	4.b\
.	.	8g/
4EE/	4EE/	4cc\
=60	=60	=60
4FF/	4FF/	2cc\
2GG/	2GG/	.
.	.	4b\
=61	=61	=61
*met(C)	*met(C)	*met(C)
*M4/4	*M4/4	*M4/4
1C	1C	2cc\
.	.	2r
=62	=62	=62
2c\	4r	4r
.	4c\	4g/
4.c\	4.c\	4.g/
8B\	8B\	8g#/
=63	=63	=63
4A\	4A\	4a/
4G#\	4G#\	4.b\
4Gn\	4Gn\	.
.	.	8cc#\
4F#\	4F#\	4dd\
=64	=64	=64
4Fn\	4Fn\	4dd\
4E\	4E\	4cc#\
2D\	2D\	2dd\
=65	=65	=65
2AA/	4r	4r
.	4AA/	4ee\
4C/	4C/	4.ee\
4D\	4D\	.
.	.	8dd\
=66	=66	=66
4E\	4E\	4cc#\
4F#\	4F#\	4ccn\
4G\	4G\	4b\
4GG/	4GG/	4b-\
=67	=67	=67
4.AA/	4.AA/	4a/
.	.	4a/
8BB/	8BB/	.
2C/	2C/	2g/
=68	=68	=68
1FF	1FF	2f/
.	.	2r
=69	=69	=69
2F\	4r	4r
.	4F\	4cc\
4.F\	4.F\	4.cc\
8E\	8E\	8cc#\
=70	=70	=70
4D\	4D\	4dd\
4C#/	4C#/	4.ee\
4Cn/	4Cn/	.
.	.	8dd\L
4BB/	4BB/	8ee\
.	.	8ff\J
=71	=71	=71
4BB-/	4BB-/	4dd\
8AA/L	8AA/L	4ee\
8GG/J	8GG/J	.
2AA/	2AA/	2ee\
=72	=72	=72
1D	1D	1dd
=73	=73	=73
4.D\	1r	2r
8E\	.	.
4F\	.	4.a/
8F\L	.	.
8F\J	.	8b\
=74	=74	=74
4E\	1r	4cc\
4C/	.	8cc\L
.	.	8cc\J
2G\	.	4b\
.	.	4g/
=75	=75	=75
4.A\	4.A\	8cc\L
.	.	8a\
.	.	8cc\
8B\	8B\	8dd\J
2c\	4c\	4ee\
.	8c\L	8ff\L
.	8c\J	8ee\J
=76	=76	=76
4B\	4B\	4dd\
4G\	4G\	2ee\
4A\	4A\	.
4B\	4B\	4dd\
=77	=77	=77
8c\L	8c\L	2ee\
8A\	8A\	.
8G\	8G\	.
8F\J	8F\J	.
4E\	8E/L	2r
.	8D/	.
4C/	8C/	.
.	8BB/J	.
=78	=78	=78
4AA/	4AA/	8r
.	.	8ee\L
4BB/	4BB/	8dd\
.	.	8cc\J
4C/	4C/	8b/L
.	.	8a/
4D\	4D\	8g/
.	.	8f#/J
=79	=79	=79
4.E\	8E\L	4.g/
.	8c\	.
.	8B\	.
8F#\	8A\J	8a/
4G\	8G\L	4b\
.	8F\	.
4E\	8E\	8b\L
.	8D\J	8b\J
=80	=80	=80
4C/	4C/	4cc\
4D\	4D\	8b/L
.	.	8a/J
4E\	4E\	8g/L
.	.	8e/J
8F\L	8F\L	[4a/
8E\J	8E\J	.
=81	=81	=81
4D\	4D\	4a/]
4E\	4E\	4g#/
2AA/	2AA/	2a/
=82	=82	=82
2A\	1r	4.ee\
.	.	8ff\
2E\	.	4gg\
.	.	8gg\L
.	.	8gg\J
=83	=83	=83
2D\	2r	4ff\
.	.	4dd\
2C/	4.E\	2ee\
.	8F\	.
=84	=84	=84
4.G\	4G\	8r
.	.	8dd\L
.	8G\L	8cc\
8G\	8G\J	8b\J
4F\	4F\	8a/L
.	.	8g/
4D\	4D\	8f/
.	.	8e/J
=85	=85	=85
4.G\	4.G\	8d/L
.	.	8d/
.	.	8e/
8F\	8F\	8f/J
4E\	4E\	4g/
4D\	4D\	8a/L
.	.	8b/J
=86	=86	=86
4A\	8r	4cc\
.	8A\L	.
8G\L	8G\	8b/L
8F\J	8F\J	8a/J
4E\	8E/L	2g/
.	8D/	.
4C/	8C/	.
.	8BB/J	.
=87	=87	=87
4.AA/	4.AA/	8r
.	.	8cc\L
.	.	8b\
8BB/	8BB/	8a\J
2C/	4C/	8g/L
.	.	8f/
.	8C/L	8e/
.	8C/J	8f#/J
=88	=88	=88
4BB/	4BB/	4g#/
4AA/	4AA/	4a/
2E\	2E\	4a/
.	.	4g#/
=89	=89	=89
1AA	1AA	1a
=90	=90	=90
1A	2r	1r
.	2A\	.
=91	=91	=91
2E\	4.E\	1r
.	8F\	.
2G\	4.G\	.
.	16F\LL	.
.	16E\JJ	.
=92	=92	=92
2D\	4.D\	1r
.	8E\	.
2F\	4.F\	.
.	16E\LL	.
.	16D\JJ	.
=93	=93	=93
2C#/	2C#/	4r
.	.	4ee\
2D\	2D\	4a/
.	.	4b\
=94	=94	=94
2AA/	2r	4.cc\
.	.	16b/LL
.	.	16a/JJ
2E\	4r	2g#/
.	4E\	.
=95	=95	=95
2AA/	4.AA/	2a/
.	8BB/	.
2C/	4.C/	4r
.	.	[4ee\
.	16BB/LL	.
.	16AA/JJ	.
=96	=96	=96
2GG#/	4GG#/	8ee\L]
.	.	8dd\
.	4GG#/	8cc\
.	.	8b\J
2AA/	2AA/	2cc\
=97	=97	=97
2EE/	4r	4r
.	4EE/	2cc\
2FF/	4FF/	.
.	4FF/	8b-/L
.	.	8a/J
=98	=98	=98
2C/	2C/	2g/
2FF/	2FF/	2f/
=99	=99	=99
*M2/2	*M2/2	*M2/2
2F\	8F\L	2.r
.	8G\	.
.	8A\	.
.	8B\J	.
4F\	4c\	.
=100	=100	=100
2C/	8C\L	2.r
.	8D\	.
.	8E\	.
.	8F\J	.
4G\	4G\	.
=101	=101	=101
2.C/	2.C/	2.r
=102	=102	=102
2c\	4c\	4ee\
.	4c\	4ee\
4c\	4c\	4ee\
=103	=103	=103
2c\	2c\	4.ee\
.	.	8ff\L
4B-\	4B-\	8dd\
.	.	8ee\J
=104	=104	=104
2.A\	2.A\	2.cc#\
=105	=105	=105
2D\	8D\L	2.r
.	8E\	.
.	8F\	.
.	8G\J	.
4AA/	4A\	.
=106	=106	=106
2BB-/	2B-\	2.r
4FF/	4F\	.
=107	=107	=107
2GG/	2G\	2.r
4BB-/	4B-\	.
=108	=108	=108
2.AA/	2.A\	2.r
=109	=109	=109
2AA/	4AA/	4cc\
.	4AA/	4cc\
4AA/	4AA/	4cc\
=110	=110	=110
2C/	2C/	4.cc\
.	.	8b\
4D\	4D\	4a/
=111	=111	=111
4GG/	4GG/	4b-\
2C/	2C/	2g/
=112	=112	=112
2.FF/	2.FF/	2.a/
=113	=113	=113
2F\	2.r	8d/L
.	.	8e/
.	.	8f/
.	.	8g/J
4E\	.	4a/
=114	=114	=114
2F\	8F\L	2.a/
.	8G\	.
.	8A\	.
.	8B\J	.
4C/	4c\	.
=115	=115	=115
2D\	4d\	4ff\
.	4D\	4ff\
4E\	4E\	4ff\
=116	=116	=116
2F\	4.F\	4.ff\
.	8G\	16ee\LL
.	.	16dd\JJ
4A\	4A\	4cc#\
=117	=117	=117
4B-\	4B-\	2dd\
2G\	2G\	.
.	.	4ee\
=118	=118	=118
4A\	4A\	2cc\
2F\	2F\	.
.	.	4a/
=119	=119	=119
4F\	4r	2cc\
4AA/	4AA/	.
4BB/	4BB/	4dd\
=120	=120	=120
4C/	4C/	4.ee\
4D\	4D\	.
.	.	16dd\LL
.	.	16cc\JJ
4E\	4E\	4b\
=121	=121	=121
4F\	4F\	2a/
2E\	2E\	.
.	.	4g#/
=122	=122	=122
*met(C)	*met(C)	*met(C)
*M4/4	*M4/4	*M4/4
2AA/	1AA	1a
2A\	.	.
=123	=123	=123
1G	2r	1r
.	2G\	.
=124	=124	=124
2.B-\	2B-\	1r
.	4B-\	.
4G\	4G\	.
=125	=125	=125
2C/	4c\	2r
.	4C/	.
2F\	2F\	4r
.	.	4a/
=126	=126	=126
2.BB-/	8r	2b-\
.	8D/L	.
.	8BB-/	.
.	8C/J	.
.	8D/L	4b-\
.	16BB-/L	.
.	16D/JJ	.
4C/	8C/L	4g/
.	8BB-/J	.
=127	=127	=127
4AA/	4AA/	4cc\
4BB-/	8BB-/L	4f/
.	8AA/J	.
2GG/	4GG/	2g/
.	4GG/	.
=128	=128	=128
2FF/	2FF/	8r
.	.	8cc\L
.	.	8a\
.	.	8b\J
4F\	2r	8cc\L
.	.	16a\L
.	.	16cc\JJ
4F#\	.	8b/L
.	.	8a/J
=129	=129	=129
4G\	8r	4b\
.	8G\L	.
8E\L	8E\	4cc\
8F\J	8F\J	.
4G\	8G\L	4b\
.	16E\L	.
.	16G\JJ	.
8F\L	8F\L	8a/L
8E\J	8E\J	8g/J
=130	=130	=130
2F\	2F\	8a\L
.	.	8b\
.	.	8cc\
.	.	8dd\J
4E\	4r	8ee\L
.	.	8cc\J
4D\	4A\	4ff\
=131	=131	=131
2.C/	2c\	8r
.	.	8ee\L
.	.	8cc\
.	.	8dd\J
.	4c\	8ee\L
.	.	16cc\L
.	.	16ee\JJ
4AA/	4A\	8dd\L
.	.	8cc\J
=132	=132	=132
2D\	2D\	2ff\
2F\	2F\	8r
.	.	8a/L
.	.	8f/
.	.	8g/J
=133	=133	=133
4F\	4F\	8a/L
.	.	16f/L
.	.	16a/JJ
4D\	4D\	8g/L
.	.	8f/J
2GG/	4G\	2b-\
.	4GG/	.
=134	=134	=134
2D\	2D\	4r
.	.	4a/
4A\	8r	2cc\
.	8A\L	.
[4F\	8F\	.
.	8G\J	.
=135	=135	=135
4F\]	8A\L	4cc\
.	16F\L	.
.	16A\JJ	.
4F\	8G\L	4a/
.	8F\J	.
4G\	8G\L	4b\
.	8A\	.
4B-\	8B-\	4dd\
.	8G\J	.
=136	=136	=136
2A\	2A\	8cc\L
.	.	8ee\
.	.	8cc\
.	.	8dd\J
2AA/	4r	8ee\L
.	.	16cc\L
.	.	16ee\JJ
.	4AA/	8dd\L
.	.	8cc\J
=137	=137	=137
2.BB-/	2BB-/	8dd\L
.	.	8ff\
.	.	8dd\
.	.	8ee\J
.	4BB-/	8ff\L
.	.	8f\
4GG/	4GG/	8b-\
.	.	8a\J
=138	=138	=138
2C/	2C/	8g/L
.	.	16a/L
.	.	16b/JJ
.	.	8cc\L
.	.	8b-\J
4F\	8r	2a/
.	8F\L	.
8D\L	8D\	.
8E\J	8E\J	.
=139	=139	=139
4F\	8F\L	2r
.	16D\L	.
.	16F\JJ	.
8E\L	8E\L	.
8D\J	8D\J	.
2C#/	8C#/L	4r
.	8E/	.
.	8D/	4ee\
.	8C#/J	.
=140	=140	=140
2D\	8D\L	2ff\
.	8E\	.
.	8F\	.
.	8G\J	.
4A\	4A\	4ff\
4B-\	4B-\	4dd\
=141	=141	=141
4c\	8r	4ee\
.	8c\L	.
8A\L	8A\	4ff\
8B\J	8B\J	.
4c\	8c\L	2ee\
.	16A\L	.
.	16c\JJ	.
8B\L	8B\L	.
8A\J	8A\J	.
=142	=142	=142
2G#\	8G#\L	1r
.	8A\	.
.	8B\	.
.	8G#\J	.
4A\	4A\	.
4AA/	4AA/	.
=143	=143	=143
2.C/	2C/	8r
.	.	8g/L
.	.	8e/
.	.	8f/J
.	4C/	8g/L
.	.	16e/L
.	.	16g/JJ
4AA/	4AA/	8f/L
.	.	8e/J
=144	=144	=144
2D\	2D\	8f/L
.	.	8dd/
.	.	8a/
.	.	8b/J
2A\	4r	8cc\L
.	.	16a\L
.	.	16cc\JJ
.	4A\	8b/L
.	.	8a/J
=145	=145	=145
4B-\	4B-\	2dd\
4G\	8B-\L	.
.	8G\J	.
4C/	8c\L	4ee\
.	8C\	.
4D\	8D\	[4ff\
.	8E\J	.
=146	=146	=146
4AA/	8F/L	4ff\]
.	8AA/	.
8C/L	8C/	4ee\
8AA/J	8AA/J	.
2D\	8D/L	4dd\
.	8FF/	.
.	8EE/	8cc\L
.	8DD/J	8b\J
=147	=147	=147
4AA/	4AA/	8cc#\L
.	.	8a\J
4GG/	8GG/L	2dd\
.	8FF/J	.
2EE/	2EE/	.
.	.	4ccn\
=148	=148	=148
4E\	8r	4b\
.	8E\L	.
8C/L	8C\	2a/
8D/J	8D\J	.
2E\	2E\	.
.	.	4g#/
=149	=149	=149
0AA	0AA	0a
==	==	==
*-	*-	*-
!!!ENC: Craig Stuart Sapp
!!!END: 2004/12/14/
